static/sponsors/Figma_at_Waterloo.svg

<svg width="678" height="109" viewBox="0 0 678 109" fill="none" xmlns="http://www.w3.org/2000/svg">
<path fill-rule="evenodd" clip-rule="evenodd" d="M9.17897 37.1048C3.65306 33.5042 0 27.2701 0 20.1828C0 9.03614 9.03614 0 20.1828 0H54.7624C65.909 0 74.9451 9.03614 74.9451 20.1828C74.9451 27.2701 71.2921 33.5042 65.7662 37.1048C71.2921 40.7055 74.9451 46.9396 74.9451 54.0269C74.9451 65.1735 65.909 74.2097 54.7624 74.2097H54.3945C49.1254 74.2097 44.3278 72.1905 40.7334 68.8837V87.6866C40.7334 98.9577 31.4996 108.053 20.2743 108.053C9.15053 108.053 0 99.0401 0 87.8706C0 80.7834 3.65293 74.5494 9.17867 70.9487C3.65293 67.348 0 61.1141 0 54.0269C0 46.9396 3.65306 40.7055 9.17897 37.1048ZM40.7334 54.0269C40.7334 61.5717 46.8497 67.6879 54.3945 67.6879H54.7624C62.3071 67.6879 68.4234 61.5717 68.4234 54.0269C68.4234 46.4821 62.3071 40.3658 54.7624 40.3658H54.3945C46.8497 40.3658 40.7334 46.4821 40.7334 54.0269ZM34.2117 40.3658H20.1828C12.638 40.3658 6.52174 46.4821 6.52174 54.0269C6.52174 61.5564 12.6132 67.6631 20.1369 67.6879L20.1582 67.6878L34.2117 67.6878V40.3658ZM20.1828 74.2097C20.1675 74.2097 20.1522 74.2097 20.1369 74.2096C12.6132 74.2344 6.52174 80.3411 6.52174 87.8706C6.52174 95.3925 12.7066 101.532 20.2743 101.532C27.9435 101.532 34.2117 95.3102 34.2117 87.6866V74.2097H20.1828ZM34.2117 33.8438H20.1828C12.638 33.8438 6.52174 27.7276 6.52174 20.1828C6.52174 12.638 12.638 6.52174 20.1828 6.52174H34.2117V33.8438ZM54.7624 33.8438H40.7334V6.52174H54.7624C62.3071 6.52174 68.4234 12.638 68.4234 20.1828C68.4234 27.7276 62.3072 33.8438 54.7624 33.8438Z" fill="black"/>
<path d="M124.738 81.5266V27.5941H132.005V81.5266H124.738ZM126.191 58.8061V52.2271H159.01V58.8061H126.191ZM126.191 34.2496V27.5941H161.687V34.2496H126.191ZM165.562 81.5266V43.3531H172.37V81.5266H165.562ZM165.485 38.4571V27.5941H172.447V38.4571H165.485ZM195.94 95.2966C191.197 95.2966 187.347 94.2001 184.389 92.0071C181.431 89.8141 179.544 86.7541 178.728 82.8271L185.383 81.3736C185.944 83.8726 187.143 85.8106 188.979 87.1876C190.815 88.6156 193.135 89.3296 195.94 89.3296C199.306 89.3296 201.831 88.4626 203.514 86.7286C205.248 85.0456 206.115 82.5211 206.115 79.1551V73.1116C205.35 74.9986 203.922 76.5286 201.831 77.7016C199.791 78.8746 197.496 79.4611 194.946 79.4611C191.58 79.4611 188.622 78.6961 186.072 77.1661C183.522 75.5851 181.533 73.3921 180.105 70.5871C178.677 67.7821 177.963 64.5436 177.963 60.8716C177.963 57.1486 178.677 53.8846 180.105 51.0796C181.533 48.2746 183.496 46.1071 185.995 44.5771C188.545 42.9961 191.529 42.2056 194.946 42.2056C197.496 42.2056 199.816 42.7921 201.907 43.9651C204.049 45.0871 205.503 46.4896 206.268 48.1726V43.3531H212.923V79.1551C212.923 82.5211 212.26 85.4026 210.934 87.7996C209.608 90.2476 207.67 92.1091 205.12 93.3841C202.621 94.6591 199.561 95.2966 195.94 95.2966ZM195.787 73.4176C199.051 73.4176 201.652 72.2701 203.59 69.9751C205.579 67.6801 206.574 64.6456 206.574 60.8716C206.574 57.0466 205.579 53.9866 203.59 51.6916C201.601 49.3966 199 48.2491 195.787 48.2491C192.523 48.2491 189.897 49.3966 187.908 51.6916C185.97 53.9866 185.001 57.0466 185.001 60.8716C185.001 64.6456 185.995 67.6801 187.984 69.9751C189.973 72.2701 192.574 73.4176 195.787 73.4176ZM220.636 81.5266V43.3531H227.291V47.6371C227.801 46.1581 228.923 44.8831 230.657 43.8121C232.391 42.7411 234.406 42.2056 236.701 42.2056C238.945 42.2056 241.01 42.6901 242.897 43.6591C244.784 44.6281 246.008 46.0816 246.569 48.0196C247.232 46.2346 248.456 44.8321 250.241 43.8121C252.077 42.7411 254.117 42.2056 256.361 42.2056C260.237 42.2056 263.195 43.3276 265.235 45.5716C267.275 47.8156 268.295 51.0796 268.295 55.3636V81.5266H261.487V56.2816C261.487 53.7316 260.926 51.8191 259.804 50.5441C258.733 49.2181 257.152 48.5551 255.061 48.5551C252.766 48.5551 250.981 49.3711 249.706 51.0031C248.482 52.5841 247.87 54.9046 247.87 57.9646V81.5266H241.061V56.2816C241.061 53.7316 240.5 51.8191 239.378 50.5441C238.307 49.2181 236.726 48.5551 234.635 48.5551C232.34 48.5551 230.555 49.3711 229.28 51.0031C228.056 52.5841 227.444 54.9046 227.444 57.9646V81.5266H220.636ZM286.62 82.6741C284.121 82.6741 281.877 82.1896 279.888 81.2206C277.95 80.2516 276.395 78.9511 275.222 77.3191C274.1 75.6361 273.539 73.6981 273.539 71.5051C273.539 68.6491 274.457 66.3286 276.293 64.5436C278.129 62.7586 280.755 61.5346 284.172 60.8716L293.123 59.0356C294.908 58.6786 296.132 58.1176 296.795 57.3526C297.458 56.5876 297.789 55.4656 297.789 53.9866L298.707 62.9371L285.855 65.6911C284.121 66.0481 282.77 66.6856 281.801 67.6036C280.883 68.5216 280.424 69.7966 280.424 71.4286C280.424 73.1116 281.061 74.4631 282.336 75.4831C283.662 76.5031 285.447 77.0131 287.691 77.0131C289.527 77.0131 291.21 76.6051 292.74 75.7891C294.321 74.9731 295.545 73.8511 296.412 72.4231C297.33 70.9441 297.789 69.2611 297.789 67.3741V53.9866C297.789 52.1506 297.126 50.7226 295.8 49.7026C294.525 48.6316 292.766 48.0961 290.522 48.0961C287.666 48.0961 285.473 48.8101 283.943 50.2381C282.413 51.6661 281.52 53.6806 281.265 56.2816L274.533 55.3636C274.788 52.6606 275.604 50.3401 276.981 48.4021C278.358 46.4131 280.194 44.8831 282.489 43.8121C284.784 42.7411 287.513 42.2056 290.675 42.2056C295.163 42.2056 298.605 43.3531 301.002 45.6481C303.399 47.9431 304.598 50.9011 304.598 54.5221V81.5266H297.942V76.5541C297.279 78.2371 295.928 79.6906 293.888 80.9146C291.899 82.0876 289.476 82.6741 286.62 82.6741ZM335.942 82.6741C333.443 82.6741 331.199 82.1896 329.21 81.2206C327.272 80.2516 325.717 78.9511 324.544 77.3191C323.422 75.6361 322.861 73.6981 322.861 71.5051C322.861 68.6491 323.779 66.3286 325.615 64.5436C327.451 62.7586 330.077 61.5346 333.494 60.8716L342.445 59.0356C344.23 58.6786 345.454 58.1176 346.117 57.3526C346.78 56.5876 347.111 55.4656 347.111 53.9866L348.029 62.9371L335.177 65.6911C333.443 66.0481 332.092 66.6856 331.123 67.6036C330.205 68.5216 329.746 69.7966 329.746 71.4286C329.746 73.1116 330.383 74.4631 331.658 75.4831C332.984 76.5031 334.769 77.0131 337.013 77.0131C338.849 77.0131 340.532 76.6051 342.062 75.7891C343.643 74.9731 344.867 73.8511 345.734 72.4231C346.652 70.9441 347.111 69.2611 347.111 67.3741V53.9866C347.111 52.1506 346.448 50.7226 345.122 49.7026C343.847 48.6316 342.088 48.0961 339.844 48.0961C336.988 48.0961 334.795 48.8101 333.265 50.2381C331.735 51.6661 330.842 53.6806 330.587 56.2816L323.855 55.3636C324.11 52.6606 324.926 50.3401 326.303 48.4021C327.68 46.4131 329.516 44.8831 331.811 43.8121C334.106 42.7411 336.835 42.2056 339.997 42.2056C344.485 42.2056 347.927 43.3531 350.324 45.6481C352.721 47.9431 353.92 50.9011 353.92 54.5221V81.5266H347.264V76.5541C346.601 78.2371 345.25 79.6906 343.21 80.9146C341.221 82.0876 338.798 82.6741 335.942 82.6741ZM375.821 82.1386C372.302 82.1386 369.548 81.2206 367.559 79.3846C365.621 77.4976 364.652 74.7946 364.652 71.2756V49.3966H357.155V43.3531H361.668C362.994 43.3531 363.912 43.1491 364.422 42.7411C364.932 42.2821 365.187 41.3386 365.187 39.9106V32.7961H371.46V43.3531H379.875V49.3966H371.46V69.8986C371.46 71.7346 371.945 73.1626 372.914 74.1826C373.934 75.2026 375.311 75.7126 377.045 75.7126C377.657 75.7126 378.167 75.6871 378.575 75.6361C379.034 75.5851 379.467 75.5341 379.875 75.4831V81.7561C379.365 81.8581 378.753 81.9346 378.039 81.9856C377.325 82.0876 376.586 82.1386 375.821 82.1386ZM409.138 81.5266L393.685 27.5941H401.794L412.887 71.2756L425.28 27.5941H432.624L445.017 71.2756L456.109 27.5941H464.218L448.765 81.5266H441.421L428.952 38.0746L416.482 81.5266H409.138ZM475.823 82.6741C473.324 82.6741 471.08 82.1896 469.091 81.2206C467.153 80.2516 465.598 78.9511 464.425 77.3191C463.303 75.6361 462.742 73.6981 462.742 71.5051C462.742 68.6491 463.66 66.3286 465.496 64.5436C467.332 62.7586 469.958 61.5346 473.375 60.8716L482.326 59.0356C484.111 58.6786 485.335 58.1176 485.998 57.3526C486.661 56.5876 486.992 55.4656 486.992 53.9866L487.91 62.9371L475.058 65.6911C473.324 66.0481 471.973 66.6856 471.004 67.6036C470.086 68.5216 469.627 69.7966 469.627 71.4286C469.627 73.1116 470.264 74.4631 471.539 75.4831C472.865 76.5031 474.65 77.0131 476.894 77.0131C478.73 77.0131 480.413 76.6051 481.943 75.7891C483.524 74.9731 484.748 73.8511 485.615 72.4231C486.533 70.9441 486.992 69.2611 486.992 67.3741V53.9866C486.992 52.1506 486.329 50.7226 485.003 49.7026C483.728 48.6316 481.969 48.0961 479.725 48.0961C476.869 48.0961 474.676 48.8101 473.146 50.2381C471.616 51.6661 470.723 53.6806 470.468 56.2816L463.736 55.3636C463.991 52.6606 464.807 50.3401 466.184 48.4021C467.561 46.4131 469.397 44.8831 471.692 43.8121C473.987 42.7411 476.716 42.2056 479.878 42.2056C484.366 42.2056 487.808 43.3531 490.205 45.6481C492.602 47.9431 493.801 50.9011 493.801 54.5221V81.5266H487.145V76.5541C486.482 78.2371 485.131 79.6906 483.091 80.9146C481.102 82.0876 478.679 82.6741 475.823 82.6741ZM515.702 82.1386C512.183 82.1386 509.429 81.2206 507.44 79.3846C505.502 77.4976 504.533 74.7946 504.533 71.2756V49.3966H497.036V43.3531H501.55C502.876 43.3531 503.794 43.1491 504.304 42.7411C504.814 42.2821 505.069 41.3386 505.069 39.9106V32.7961H511.342V43.3531H519.757V49.3966H511.342V69.8986C511.342 71.7346 511.826 73.1626 512.795 74.1826C513.815 75.2026 515.192 75.7126 516.926 75.7126C517.538 75.7126 518.048 75.6871 518.456 75.6361C518.915 75.5851 519.349 75.5341 519.757 75.4831V81.7561C519.247 81.8581 518.635 81.9346 517.921 81.9856C517.207 82.0876 516.467 82.1386 515.702 82.1386ZM539.89 82.6741C536.167 82.6741 532.928 81.8326 530.174 80.1496C527.471 78.4666 525.38 76.0951 523.901 73.0351C522.473 69.9751 521.759 66.4561 521.759 62.4781C521.759 58.4491 522.499 54.9301 523.978 51.9211C525.508 48.8611 527.599 46.4896 530.251 44.8066C532.954 43.0726 536.039 42.2056 539.507 42.2056C542.771 42.2056 545.678 42.9706 548.228 44.5006C550.778 46.0306 552.767 48.1981 554.195 51.0031C555.674 53.8081 556.414 57.1231 556.414 60.9481C556.414 61.5091 556.388 62.0956 556.337 62.7076C556.286 63.2686 556.235 63.6766 556.184 63.9316H524.513V58.7296H551.518L549.605 59.8006C549.605 57.1996 549.146 55.0321 548.228 53.2981C547.31 51.5641 546.086 50.2636 544.556 49.3966C543.077 48.4786 541.394 48.0196 539.507 48.0196C537.416 48.0196 535.555 48.5551 533.923 49.6261C532.342 50.6461 531.092 52.0231 530.174 53.7571C529.256 55.4911 528.797 57.4036 528.797 59.4946V63.3196C528.797 67.4506 529.766 70.7146 531.704 73.1116C533.642 75.5086 536.422 76.7071 540.043 76.7071C542.287 76.7071 544.327 76.0696 546.163 74.7946C547.999 73.4686 549.248 71.6071 549.911 69.2101L556.031 71.1226C555.011 74.8456 553.048 77.7016 550.141 79.6906C547.285 81.6796 543.868 82.6741 539.89 82.6741ZM561.897 81.5266V43.3531H568.553V49.0906C568.961 47.5606 569.751 46.2856 570.924 45.2656C572.148 44.2456 573.551 43.4806 575.132 42.9706C576.764 42.4606 578.396 42.2056 580.028 42.2056C580.13 42.2056 580.232 42.2056 580.334 42.2056C580.487 42.2056 580.614 42.2056 580.716 42.2056V49.0141C580.614 49.0141 580.487 49.0141 580.334 49.0141C580.232 49.0141 580.13 49.0141 580.028 49.0141C577.937 49.0141 576.024 49.4476 574.29 50.3146C572.607 51.1816 571.256 52.5586 570.236 54.4456C569.216 56.2816 568.706 58.7296 568.706 61.7896V81.5266H561.897ZM584.504 27.5941H591.312V81.5266H584.504V27.5941ZM615.263 82.6741C611.693 82.6741 608.506 81.8326 605.701 80.1496C602.947 78.4156 600.754 76.0186 599.122 72.9586C597.541 69.8986 596.75 66.3796 596.75 62.4016C596.75 58.3726 597.541 54.8536 599.122 51.8446C600.754 48.8356 602.947 46.4896 605.701 44.8066C608.506 43.0726 611.693 42.2056 615.263 42.2056C618.833 42.2056 621.995 43.0726 624.749 44.8066C627.554 46.4896 629.747 48.8356 631.328 51.8446C632.96 54.8536 633.776 58.3726 633.776 62.4016C633.776 66.3796 632.96 69.8986 631.328 72.9586C629.747 76.0186 627.554 78.4156 624.749 80.1496C621.995 81.8326 618.833 82.6741 615.263 82.6741ZM615.34 76.4776C617.533 76.4776 619.471 75.9166 621.154 74.7946C622.888 73.6216 624.239 71.9896 625.208 69.8986C626.177 67.8076 626.662 65.3086 626.662 62.4016C626.662 59.4436 626.177 56.9446 625.208 54.9046C624.239 52.8136 622.888 51.2071 621.154 50.0851C619.42 48.9631 617.456 48.4021 615.263 48.4021C613.121 48.4021 611.183 48.9631 609.449 50.0851C607.715 51.2071 606.338 52.8136 605.318 54.9046C604.349 56.9446 603.865 59.4436 603.865 62.4016C603.865 65.3086 604.349 67.8076 605.318 69.8986C606.338 71.9896 607.715 73.6216 609.449 74.7946C611.183 75.9166 613.147 76.4776 615.34 76.4776ZM655.725 82.6741C652.155 82.6741 648.967 81.8326 646.162 80.1496C643.408 78.4156 641.215 76.0186 639.583 72.9586C638.002 69.8986 637.212 66.3796 637.212 62.4016C637.212 58.3726 638.002 54.8536 639.583 51.8446C641.215 48.8356 643.408 46.4896 646.162 44.8066C648.967 43.0726 652.155 42.2056 655.725 42.2056C659.295 42.2056 662.457 43.0726 665.211 44.8066C668.016 46.4896 670.209 48.8356 671.79 51.8446C673.422 54.8536 674.238 58.3726 674.238 62.4016C674.238 66.3796 673.422 69.8986 671.79 72.9586C670.209 76.0186 668.016 78.4156 665.211 80.1496C662.457 81.8326 659.295 82.6741 655.725 82.6741ZM655.801 76.4776C657.994 76.4776 659.932 75.9166 661.615 74.7946C663.349 73.6216 664.701 71.9896 665.67 69.8986C666.639 67.8076 667.123 65.3086 667.123 62.4016C667.123 59.4436 666.639 56.9446 665.67 54.9046C664.701 52.8136 663.349 51.2071 661.615 50.0851C659.881 48.9631 657.918 48.4021 655.725 48.4021C653.583 48.4021 651.645 48.9631 649.911 50.0851C648.177 51.2071 646.8 52.8136 645.78 54.9046C644.811 56.9446 644.326 59.4436 644.326 62.4016C644.326 65.3086 644.811 67.8076 645.78 69.8986C646.8 71.9896 648.177 73.6216 649.911 74.7946C651.645 75.9166 653.608 76.4776 655.801 76.4776Z" fill="black"/>
</svg>

<svg width="678" height="109" fill="none" xmlns="http://www.w3.org/2000/svg"><path fill-rule="evenodd" clip-rule="evenodd" d="M9.179 37.105C3.653 33.505 0 27.27 0 20.183 0 9.036 9.036 0 20.183 0h34.58c11.146 0 20.182 9.036 20.182 20.183 0 7.087-3.653 13.321-9.179 16.922 5.526 3.6 9.18 9.835 9.18 16.922 0 11.147-9.037 20.183-20.184 20.183h-.367a20.11 20.11 0 01-13.662-5.326v18.803c0 11.27-9.233 20.366-20.459 20.366C9.151 108.053 0 99.04 0 87.871c0-7.088 3.653-13.322 9.179-16.922C3.653 67.348 0 61.114 0 54.027s3.653-13.322 9.179-16.922zm31.554 16.922c0 7.545 6.117 13.66 13.662 13.66h.367c7.545 0 13.661-6.115 13.661-13.66s-6.116-13.661-13.66-13.661h-.368c-7.545 0-13.662 6.116-13.662 13.66zm-6.521-13.661h-14.03c-7.544 0-13.66 6.116-13.66 13.66 0 7.53 6.091 13.637 13.615 13.662H34.212V40.366zM20.182 74.21h-.045c-7.524.024-13.615 6.131-13.615 13.66 0 7.522 6.185 13.662 13.752 13.662 7.67 0 13.938-6.222 13.938-13.845V74.21h-14.03zm14.03-40.366h-14.03c-7.544 0-13.66-6.116-13.66-13.661s6.116-13.661 13.66-13.661h14.03v27.322zm20.55 0H40.733V6.522h14.03c7.544 0 13.66 6.116 13.66 13.66 0 7.546-6.116 13.662-13.66 13.662z" fill="#000"/><path d="M124.738 81.527V27.594h7.267v53.933h-7.267zm1.453-22.72v-6.58h32.819v6.58h-32.819zm0-24.557v-6.656h35.496v6.656h-35.496zm39.371 47.277V43.353h6.808v38.174h-6.808zm-.077-43.07V27.594h6.962v10.863h-6.962zm30.455 56.84c-4.743 0-8.593-1.097-11.551-3.29s-4.845-5.253-5.661-9.18l6.655-1.453c.561 2.499 1.76 4.437 3.596 5.814 1.836 1.428 4.156 2.142 6.961 2.142 3.366 0 5.891-.867 7.574-2.601 1.734-1.683 2.601-4.208 2.601-7.574v-6.043c-.765 1.887-2.193 3.417-4.284 4.59-2.04 1.173-4.335 1.76-6.885 1.76-3.366 0-6.324-.766-8.874-2.296-2.55-1.58-4.539-3.774-5.967-6.579-1.428-2.805-2.142-6.043-2.142-9.715 0-3.723.714-6.987 2.142-9.792 1.428-2.805 3.391-4.973 5.89-6.503 2.55-1.58 5.534-2.371 8.951-2.371 2.55 0 4.87.586 6.961 1.76 2.142 1.121 3.596 2.524 4.361 4.207v-4.82h6.655v35.802c0 3.366-.663 6.248-1.989 8.645-1.326 2.448-3.264 4.31-5.814 5.584-2.499 1.275-5.559 1.913-9.18 1.913zm-.153-21.88c3.264 0 5.865-1.147 7.803-3.442 1.989-2.295 2.984-5.33 2.984-9.103 0-3.825-.995-6.885-2.984-9.18-1.989-2.295-4.59-3.443-7.803-3.443-3.264 0-5.89 1.148-7.879 3.443-1.938 2.295-2.907 5.355-2.907 9.18 0 3.774.994 6.808 2.983 9.103s4.59 3.443 7.803 3.443zm24.849 8.11V43.353h6.655v4.284c.51-1.479 1.632-2.754 3.366-3.825 1.734-1.07 3.749-1.606 6.044-1.606 2.244 0 4.309.484 6.196 1.453 1.887.97 3.111 2.423 3.672 4.36.663-1.784 1.887-3.187 3.672-4.207 1.836-1.07 3.876-1.606 6.12-1.606 3.876 0 6.834 1.122 8.874 3.366 2.04 2.244 3.06 5.508 3.06 9.792v26.163h-6.808V56.282c0-2.55-.561-4.463-1.683-5.738-1.071-1.326-2.652-1.989-4.743-1.989-2.295 0-4.08.816-5.355 2.448-1.224 1.581-1.836 3.902-1.836 6.962v23.562h-6.809V56.282c0-2.55-.561-4.463-1.683-5.738-1.071-1.326-2.652-1.989-4.743-1.989-2.295 0-4.08.816-5.355 2.448-1.224 1.581-1.836 3.902-1.836 6.962v23.562h-6.808zm65.984 1.147c-2.499 0-4.743-.484-6.732-1.453-1.938-.97-3.493-2.27-4.666-3.902-1.122-1.683-1.683-3.62-1.683-5.814 0-2.856.918-5.176 2.754-6.961 1.836-1.785 4.462-3.01 7.879-3.672l8.951-1.836c1.785-.357 3.009-.918 3.672-1.683.663-.765.994-1.887.994-3.366l.918 8.95-12.852 2.754c-1.734.357-3.085.995-4.054 1.913-.918.918-1.377 2.193-1.377 3.825 0 1.683.637 3.034 1.912 4.054 1.326 1.02 3.111 1.53 5.355 1.53 1.836 0 3.519-.408 5.049-1.224 1.581-.816 2.805-1.938 3.672-3.366.918-1.479 1.377-3.162 1.377-5.049V53.987c0-1.836-.663-3.264-1.989-4.284-1.275-1.071-3.034-1.607-5.278-1.607-2.856 0-5.049.714-6.579 2.142-1.53 1.428-2.423 3.443-2.678 6.044l-6.732-.918c.255-2.703 1.071-5.024 2.448-6.962 1.377-1.989 3.213-3.519 5.508-4.59 2.295-1.07 5.024-1.606 8.186-1.606 4.488 0 7.93 1.147 10.327 3.442 2.397 2.295 3.596 5.253 3.596 8.874v27.005h-6.656v-4.973c-.663 1.683-2.014 3.137-4.054 4.36-1.989 1.174-4.412 1.76-7.268 1.76zm49.322 0c-2.499 0-4.743-.484-6.732-1.453-1.938-.97-3.493-2.27-4.666-3.902-1.122-1.683-1.683-3.62-1.683-5.814 0-2.856.918-5.176 2.754-6.961 1.836-1.785 4.462-3.01 7.879-3.672l8.951-1.836c1.785-.357 3.009-.918 3.672-1.683.663-.765.994-1.887.994-3.366l.918 8.95-12.852 2.754c-1.734.357-3.085.995-4.054 1.913-.918.918-1.377 2.193-1.377 3.825 0 1.683.637 3.034 1.912 4.054 1.326 1.02 3.111 1.53 5.355 1.53 1.836 0 3.519-.408 5.049-1.224 1.581-.816 2.805-1.938 3.672-3.366.918-1.479 1.377-3.162 1.377-5.049V53.987c0-1.836-.663-3.264-1.989-4.284-1.275-1.071-3.034-1.607-5.278-1.607-2.856 0-5.049.714-6.579 2.142-1.53 1.428-2.423 3.443-2.678 6.044l-6.732-.918c.255-2.703 1.071-5.024 2.448-6.962 1.377-1.989 3.213-3.519 5.508-4.59 2.295-1.07 5.024-1.606 8.186-1.606 4.488 0 7.93 1.147 10.327 3.442 2.397 2.295 3.596 5.253 3.596 8.874v27.005h-6.656v-4.973c-.663 1.683-2.014 3.137-4.054 4.36-1.989 1.174-4.412 1.76-7.268 1.76zm39.879-.535c-3.519 0-6.273-.918-8.262-2.754-1.938-1.887-2.907-4.59-2.907-8.11V49.398h-7.497v-6.044h4.513c1.326 0 2.244-.204 2.754-.612.51-.459.765-1.402.765-2.83v-7.115h6.273v10.557h8.415v6.044h-8.415v20.502c0 1.836.485 3.264 1.454 4.284 1.02 1.02 2.397 1.53 4.131 1.53.612 0 1.122-.026 1.53-.077a95.73 95.73 0 001.3-.153v6.273c-.51.102-1.122.179-1.836.23-.714.102-1.453.153-2.218.153zm33.317-.612l-15.453-53.933h8.109l11.093 43.682 12.393-43.682h7.344l12.393 43.682 11.092-43.682h8.109l-15.453 53.933h-7.344l-12.469-43.452-12.47 43.452h-7.344zm66.685 1.147c-2.499 0-4.743-.484-6.732-1.453-1.938-.97-3.493-2.27-4.666-3.902-1.122-1.683-1.683-3.62-1.683-5.814 0-2.856.918-5.176 2.754-6.961 1.836-1.785 4.462-3.01 7.879-3.672l8.951-1.836c1.785-.357 3.009-.918 3.672-1.683.663-.765.994-1.887.994-3.366l.918 8.95-12.852 2.754c-1.734.357-3.085.995-4.054 1.913-.918.918-1.377 2.193-1.377 3.825 0 1.683.637 3.034 1.912 4.054 1.326 1.02 3.111 1.53 5.355 1.53 1.836 0 3.519-.408 5.049-1.224 1.581-.816 2.805-1.938 3.672-3.366.918-1.479 1.377-3.162 1.377-5.049V53.987c0-1.836-.663-3.264-1.989-4.284-1.275-1.071-3.034-1.607-5.278-1.607-2.856 0-5.049.714-6.579 2.142-1.53 1.428-2.423 3.443-2.678 6.044l-6.732-.918c.255-2.703 1.071-5.024 2.448-6.962 1.377-1.989 3.213-3.519 5.508-4.59 2.295-1.07 5.024-1.606 8.186-1.606 4.488 0 7.93 1.147 10.327 3.442 2.397 2.295 3.596 5.253 3.596 8.874v27.005h-6.656v-4.973c-.663 1.683-2.014 3.137-4.054 4.36-1.989 1.174-4.412 1.76-7.268 1.76zm39.879-.535c-3.519 0-6.273-.918-8.262-2.754-1.938-1.887-2.907-4.59-2.907-8.11V49.398h-7.497v-6.044h4.514c1.326 0 2.244-.204 2.754-.612.51-.459.765-1.402.765-2.83v-7.115h6.273v10.557h8.415v6.044h-8.415v20.502c0 1.836.484 3.264 1.453 4.284 1.02 1.02 2.397 1.53 4.131 1.53.612 0 1.122-.026 1.53-.077.459-.05.893-.102 1.301-.153v6.273c-.51.102-1.122.179-1.836.23-.714.102-1.454.153-2.219.153zm24.188.535c-3.723 0-6.962-.841-9.716-2.524-2.703-1.683-4.794-4.055-6.273-7.115-1.428-3.06-2.142-6.579-2.142-10.557 0-4.029.74-7.548 2.219-10.557 1.53-3.06 3.621-5.431 6.273-7.114 2.703-1.734 5.788-2.601 9.256-2.601 3.264 0 6.171.765 8.721 2.295 2.55 1.53 4.539 3.697 5.967 6.502 1.479 2.805 2.219 6.12 2.219 9.945 0 .561-.026 1.148-.077 1.76-.051.56-.102.969-.153 1.224h-31.671V58.73h27.005l-1.913 1.07c0-2.6-.459-4.768-1.377-6.502-.918-1.734-2.142-3.034-3.672-3.901-1.479-.918-3.162-1.377-5.049-1.377-2.091 0-3.952.535-5.584 1.606-1.581 1.02-2.831 2.397-3.749 4.131-.918 1.734-1.377 3.647-1.377 5.738v3.825c0 4.13.969 7.395 2.907 9.792 1.938 2.397 4.718 3.595 8.339 3.595 2.244 0 4.284-.637 6.12-1.912 1.836-1.326 3.085-3.188 3.748-5.585l6.12 1.913c-1.02 3.723-2.983 6.579-5.89 8.568-2.856 1.989-6.273 2.983-10.251 2.983zm22.007-1.147V43.353h6.656v5.738c.408-1.53 1.198-2.805 2.371-3.825a12.493 12.493 0 014.208-2.295 16.337 16.337 0 014.896-.765h.688v6.808h-.688c-2.091 0-4.004.434-5.738 1.3-1.683.868-3.034 2.245-4.054 4.132-1.02 1.836-1.53 4.284-1.53 7.344v19.737h-6.809zm22.607-53.933h6.808v53.933h-6.808V27.594zm30.759 55.08c-3.57 0-6.757-.841-9.562-2.524-2.754-1.734-4.947-4.131-6.579-7.191-1.581-3.06-2.372-6.58-2.372-10.557 0-4.03.791-7.548 2.372-10.557 1.632-3.01 3.825-5.355 6.579-7.038 2.805-1.734 5.992-2.601 9.562-2.601 3.57 0 6.732.867 9.486 2.6 2.805 1.684 4.998 4.03 6.579 7.039 1.632 3.009 2.448 6.528 2.448 10.557 0 3.978-.816 7.497-2.448 10.557-1.581 3.06-3.774 5.457-6.579 7.19-2.754 1.684-5.916 2.525-9.486 2.525zm.077-6.196c2.193 0 4.131-.561 5.814-1.683 1.734-1.173 3.085-2.805 4.054-4.896.969-2.091 1.454-4.59 1.454-7.497 0-2.958-.485-5.457-1.454-7.497-.969-2.091-2.32-3.698-4.054-4.82-1.734-1.122-3.698-1.683-5.891-1.683-2.142 0-4.08.561-5.814 1.683-1.734 1.122-3.111 2.729-4.131 4.82-.969 2.04-1.453 4.539-1.453 7.497 0 2.907.484 5.406 1.453 7.497 1.02 2.09 2.397 3.723 4.131 4.896 1.734 1.122 3.698 1.683 5.891 1.683zm40.385 6.196c-3.57 0-6.758-.841-9.563-2.524-2.754-1.734-4.947-4.131-6.579-7.191-1.581-3.06-2.371-6.58-2.371-10.557 0-4.03.79-7.548 2.371-10.557 1.632-3.01 3.825-5.355 6.579-7.038 2.805-1.734 5.993-2.601 9.563-2.601 3.57 0 6.732.867 9.486 2.6 2.805 1.684 4.998 4.03 6.579 7.039 1.632 3.009 2.448 6.528 2.448 10.557 0 3.978-.816 7.497-2.448 10.557-1.581 3.06-3.774 5.457-6.579 7.19-2.754 1.684-5.916 2.525-9.486 2.525zm.076-6.196c2.193 0 4.131-.561 5.814-1.683 1.734-1.173 3.086-2.805 4.055-4.896.969-2.091 1.453-4.59 1.453-7.497 0-2.958-.484-5.457-1.453-7.497-.969-2.091-2.321-3.698-4.055-4.82-1.734-1.122-3.697-1.683-5.89-1.683-2.142 0-4.08.561-5.814 1.683-1.734 1.122-3.111 2.729-4.131 4.82-.969 2.04-1.454 4.539-1.454 7.497 0 2.907.485 5.406 1.454 7.497 1.02 2.09 2.397 3.723 4.131 4.896 1.734 1.122 3.697 1.683 5.89 1.683z" fill="#000"/></svg>
